styles/3/Numix/256x256/places/default-folder.svg

<?xml version="1.0" encoding="UTF-8" standalone="no"?>
<svg
   xmlns:dc="http://purl.org/dc/elements/1.1/"
   xmlns:cc="http://creativecommons.org/ns#"
   xmlns:rdf="http://www.w3.org/1999/02/22-rdf-syntax-ns#"
   xmlns:svg="http://www.w3.org/2000/svg"
   xmlns="http://www.w3.org/2000/svg"
   xmlns:sodipodi="http://sodipodi.sourceforge.net/DTD/sodipodi-0.dtd"
   xmlns:inkscape="http://www.inkscape.org/namespaces/inkscape"
   width="256px"
   height="256px"
   viewBox="0 0 256 256"
   version="1.1"
   id="svg3002"
   inkscape:version="0.48.5 r10040"
   sodipodi:docname="folder.svg">
  <metadata
     id="metadata3021">
    <rdf:RDF>
      <cc:Work
         rdf:about="">
        <dc:format>image/svg+xml</dc:format>
        <dc:type
           rdf:resource="http://purl.org/dc/dcmitype/StillImage" />
      </cc:Work>
    </rdf:RDF>
  </metadata>
  <defs
     id="defs3019" />
  <sodipodi:namedview
     pagecolor="#ffffff"
     bordercolor="#666666"
     borderopacity="1"
     objecttolerance="10"
     gridtolerance="10"
     guidetolerance="10"
     inkscape:pageopacity="0"
     inkscape:pageshadow="2"
     inkscape:window-width="668"
     inkscape:window-height="480"
     id="namedview3017"
     showgrid="false"
     inkscape:zoom="0.921875"
     inkscape:cx="120.40678"
     inkscape:cy="128"
     inkscape:window-x="0"
     inkscape:window-y="0"
     inkscape:window-maximized="0"
     inkscape:current-layer="svg3002" />
  <path
     inkscape:connector-curvature="0"
     id="path3005"
     d="m 24,48 208,0 0,80 -208,0 z m 0,0"
     style="fill:#ea9036;fill-opacity:1;fill-rule:nonzero;stroke:none" />
  <path
     inkscape:connector-curvature="0"
     id="path3007"
     d="m 48,48 c 0,-8 0,-16 11.632812,-16 l 40.734378,0 C 112,32 112,40 112,48 l 0,8 -64,0 z m 0,0"
     style="fill:#ea9036;fill-opacity:1;fill-rule:nonzero;stroke:none" />
  <path
     inkscape:connector-curvature="0"
     id="path3009"
     d="m 40,64 176,0 0,39.74219 -176,0 z m 0,0"
     style="fill:#94979c;fill-opacity:1;fill-rule:nonzero;stroke:none" />
  <path
     inkscape:connector-curvature="0"
     id="path3011"
     d="m 56,56 152,0 0,104 -152,0 z m 0,0"
     style="fill:#d7d7d9;fill-opacity:1;fill-rule:nonzero;stroke:none" />
  <path
     inkscape:connector-curvature="0"
     id="path3013"
     d="m 48,72 152,0 0,104 -152,0 z m 0,0"
     style="fill:#f8f8f8;fill-opacity:1;fill-rule:nonzero;stroke:none" />
  <path
     inkscape:connector-curvature="0"
     id="path3015"
     d="m 8,80 240,0 -17.14063,144 -205.718745,0 z m 0,0"
     style="fill:#f2bb64;fill-opacity:1;fill-rule:nonzero;stroke:none" />
</svg>

<svg xmlns="http://www.w3.org/2000/svg" xmlns:xlink="http://www.w3.org/1999/xlink" width="256px" height="256px" viewBox="0 0 256 256" version="1.1">
<g id="surface1">
<path style=" stroke:none;fill-rule:nonzero;fill:rgb(90.980392%,56.078431%,20.784314%);fill-opacity:1;" d="M 24 48 L 232 48 L 232 128 L 24 128 Z M 24 48 "/>
<path style=" stroke:none;fill-rule:nonzero;fill:rgb(90.980392%,56.078431%,20.784314%);fill-opacity:1;" d="M 48 48 C 48 40 48 32 59.632812 32 L 100.367188 32 C 112 32 112 40 112 48 L 112 56 L 48 56 Z M 48 48 "/>
<path style=" stroke:none;fill-rule:nonzero;fill:rgb(58.039216%,59.215686%,61.960784%);fill-opacity:1;" d="M 40 64 L 216 64 L 216 103.742188 L 40 103.742188 Z M 40 64 "/>
<path style=" stroke:none;fill-rule:nonzero;fill:rgb(84.313725%,84.313725%,85.098039%);fill-opacity:1;" d="M 56 56 L 208 56 L 208 160 L 56 160 Z M 56 56 "/>
<path style=" stroke:none;fill-rule:nonzero;fill:rgb(97.254902%,97.254902%,97.254902%);fill-opacity:1;" d="M 48 72 L 200 72 L 200 176 L 48 176 Z M 48 72 "/>
<path style=" stroke:none;fill-rule:nonzero;fill:rgb(94.117647%,72.941176%,38.823529%);fill-opacity:1;" d="M 8 80 L 248 80 L 230.859375 224 L 25.140625 224 Z M 8 80 "/>
</g>
</svg>
